assets/icons/walletdark.svg

<svg width="24" height="24" viewBox="0 0 24 24" fill="none" xmlns="http://www.w3.org/2000/svg">
<path d="M18.04 13.55C17.62 13.96 17.38 14.55 17.44 15.18C17.53 16.26 18.52 17.05 19.6 17.05H21.5V18.24C21.5 20.31 19.81 22 17.74 22H7.63C7.94 21.74 8.21 21.42 8.42 21.06C8.79 20.46 9 19.75 9 19C9 16.79 7.21 15 5 15C4.06 15 3.19 15.33 2.5 15.88V11.51C2.5 9.44001 4.19 7.75 6.26 7.75H17.74C19.81 7.75 21.5 9.44001 21.5 11.51V12.95H19.48C18.92 12.95 18.41 13.17 18.04 13.55Z" stroke="#CBD2D9" stroke-width="1.5" stroke-linecap="round" stroke-linejoin="round"/>
<path d="M2.5 12.4113V7.84132C2.5 6.65132 3.23 5.59128 4.34 5.17128L12.28 2.17128C13.52 1.70128 14.85 2.62131 14.85 3.95131V7.7513" stroke="#CBD2D9" stroke-width="1.5" stroke-linecap="round" stroke-linejoin="round"/>
<path d="M22.5588 13.9692V16.0292C22.5588 16.5792 22.1188 17.0292 21.5588 17.0492H19.5988C18.5188 17.0492 17.5288 16.2592 17.4388 15.1792C17.3788 14.5492 17.6188 13.9592 18.0388 13.5492C18.4088 13.1692 18.9188 12.9492 19.4788 12.9492H21.5588C22.1188 12.9692 22.5588 13.4192 22.5588 13.9692Z" stroke="#CBD2D9" stroke-width="1.5" stroke-linecap="round" stroke-linejoin="round"/>
<path d="M7 12H14" stroke="#CBD2D9" stroke-width="1.5" stroke-linecap="round" stroke-linejoin="round"/>
<path d="M9 19C9 19.75 8.79 20.46 8.42 21.06C8.21 21.42 7.94 21.74 7.63 22C6.93 22.63 6.01 23 5 23C3.54 23 2.27 22.22 1.58 21.06C1.21 20.46 1 19.75 1 19C1 17.74 1.58 16.61 2.5 15.88C3.19 15.33 4.06 15 5 15C7.21 15 9 16.79 9 19Z" stroke="#CBD2D9" stroke-width="1.5" stroke-miterlimit="10" stroke-linecap="round" stroke-linejoin="round"/>
<path d="M6.06922 20.0397L3.94922 17.9297" stroke="#CBD2D9" stroke-width="1.5" stroke-miterlimit="10" stroke-linecap="round" stroke-linejoin="round"/>
<path d="M6.04969 17.9609L3.92969 20.0709" stroke="#CBD2D9" stroke-width="1.5" stroke-miterlimit="10" stroke-linecap="round" stroke-linejoin="round"/>
</svg>

<svg width="24" height="24" viewBox="0 0 24 24" fill="none" xmlns="http://www.w3.org/2000/svg"><path d="M18.04 13.55a2 2 0 0 0-.6 1.63c.09 1.08 1.08 1.87 2.16 1.87h1.9v1.19A3.77 3.77 0 0 1 17.74 22H7.63q.47-.4.79-.94.57-.92.58-2.06a4 4 0 0 0-6.5-3.12v-4.37a3.77 3.77 0 0 1 3.76-3.76h11.48a3.77 3.77 0 0 1 3.76 3.76v1.44h-2.02a2 2 0 0 0-1.44.6" stroke="#CBD2D9" stroke-width="1.5" stroke-linecap="round" stroke-linejoin="round"/><path d="M2.5 12.41V7.84c0-1.19.73-2.25 1.84-2.67l7.94-3a1.9 1.9 0 0 1 2.57 1.78v3.8m7.7 6.22v2.06c0 .55-.43 1-1 1.02H19.6c-1.08 0-2.07-.8-2.16-1.87a2 2 0 0 1 .6-1.63 2 2 0 0 1 1.44-.6h2.08c.56.02 1 .47 1 1.02M7 12h7" stroke="#CBD2D9" stroke-width="1.5" stroke-linecap="round" stroke-linejoin="round"/><path d="M9 19a4 4 0 0 1-1.37 3 3.97 3.97 0 0 1-6.05-.94A3.97 3.97 0 0 1 5 15a4 4 0 0 1 4 4m-2.93 1.04-2.12-2.11m2.1.03-2.12 2.11" stroke="#CBD2D9" stroke-width="1.5" stroke-miterlimit="10" stroke-linecap="round" stroke-linejoin="round"/></svg>
